X:7668
T:Trip to Cullenstown,The
O:england
N:IrTrad, 6/99
M:4/4
L:1/8
S:Patrick Street
R:reel
D:Life from Patrick Street
K:G
(3ABc|:d2 de dB GA|B2 BG AG EG|Bd de dB GA|BA AG A3 c|
Bd ~d2 e2 dB|d2 dB AG ED|~B3 G AG EG|
1 DG GF GA Bc:|2 DG GF G3 A||
Bd ~d2 ce ~e2|d2 de dB GA|Bd ~d2 ed ~d2|ge dB A3 c|
BG Bd e2 dB|d2 dB AG ED|~B3 G AG EG|
1 DG GF G3 c:|2 DG GF G2 (3ABc||
d2 de dB GA|B2 BG AG EG|Bd de dB GA|BA AG A3 c|
Bd ~d2 e2 dB|d2 dB AG ED|~B3 G AG EG|
1 DG GF GA Bc:|2 DG GF G3 A||
Bd ~d2 ce ~e2|d2 de dB GA|Bd ~d2 ed ~d2|ge dB A3 c|
BG Bd e2 dB|d2 dB AG ED|~B3 G AG EG|
1 DG GF G3 c:|2 DG GF G4||


